svgs/solid/border-outer.svg

<svg xmlns="http://www.w3.org/2000/svg" viewBox="0 0 448 512"><!--! Font Awesome Pro 6.0.0-alpha3 by @fontawesome - https://fontawesome.com License - https://fontawesome.com/license (Commercial License) --><path d="M208 288h32C248.9 288 256 280.9 256 272v-32C256 231.1 248.9 224 240 224h-32C199.1 224 192 231.1 192 240v32C192 280.9 199.1 288 208 288zM304 288h32C344.9 288 352 280.9 352 272v-32C352 231.1 344.9 224 336 224h-32C295.1 224 288 231.1 288 240v32C288 280.9 295.1 288 304 288zM112 288h32C152.9 288 160 280.9 160 272v-32C160 231.1 152.9 224 144 224h-32C103.1 224 96 231.1 96 240v32C96 280.9 103.1 288 112 288zM208 384h32c8.875 0 16-7.125 16-16v-32c0-8.875-7.125-16-16-16h-32C199.1 320 192 327.1 192 336v32C192 376.9 199.1 384 208 384zM208 192h32C248.9 192 256 184.9 256 176v-32C256 135.1 248.9 128 240 128h-32C199.1 128 192 135.1 192 144v32C192 184.9 199.1 192 208 192zM384 32H64C28.8 32 0 60.8 0 96v320c0 35.2 28.8 64 64 64h320c35.2 0 64-28.8 64-64V96C448 60.8 419.2 32 384 32zM384 416H64V96h320V416z"/></svg>

<svg xmlns="http://www.w3.org/2000/svg" viewBox="0 0 448 512"><!-- Font Awesome Pro 5.15.3 by @fontawesome - https://fontawesome.com License - https://fontawesome.com/license (Commercial License) --><path d="M208 288h32a16 16 0 0 0 16-16v-32a16 16 0 0 0-16-16h-32a16 16 0 0 0-16 16v32a16 16 0 0 0 16 16zm96 0h32a16 16 0 0 0 16-16v-32a16 16 0 0 0-16-16h-32a16 16 0 0 0-16 16v32a16 16 0 0 0 16 16zm-192 0h32a16 16 0 0 0 16-16v-32a16 16 0 0 0-16-16h-32a16 16 0 0 0-16 16v32a16 16 0 0 0 16 16zm96 96h32a16 16 0 0 0 16-16v-32a16 16 0 0 0-16-16h-32a16 16 0 0 0-16 16v32a16 16 0 0 0 16 16zm0-192h32a16 16 0 0 0 16-16v-32a16 16 0 0 0-16-16h-32a16 16 0 0 0-16 16v32a16 16 0 0 0 16 16zM416 32H32A32 32 0 0 0 0 64v384a32 32 0 0 0 32 32h384a32 32 0 0 0 32-32V64a32 32 0 0 0-32-32zm-32 384H64V96h320z"/></svg>
